X: 168
%
U:~=!turn!
T: Earl of Hyndfords Reel
C:
O:Scotland
B:Keith Norman MacDonald : "The Skye collection of the best reels & strathspeys extant" : 1887
Z:Ralph Palmer
R:Reel
M:C|
L:1/8
K:Cm
G, | TC2 EG (cde).c | .B(GTFE) DB,B,D | TC2 EG (cde).c | .B(GFD) ECCE | TC2 EG (cde).c | .B(GTFE) DB,B,D | ECFD GEAF | GEFD ECC||
G | cGEe cgec | Bbfg dfBd | e<cge dBGc | BEDG ECCG | cGEe cgec | BdFB DFB,D | ECFD GEAF | GEFD ECC |]


